X: 33988
T: Reel à Gilbert
R: reel
M: 4/4
K: Amajor
EAcA BAFA|EAcA BAFA|e2ef ecAc|BABc BAFA|
EAcA BAFA|EAcA BAFA|e2ef ecAc|1 BABc BAFA:|2 BABc ABcd||
e2ef eca2|f2fa f2ed|cdef ecAB|BABc BAEA
e2ef eca2|f2fa f2ed|cdef ecAB|1 BABc ABcd:|2 BABc A4||

